svg/emoticon_sick_outline.svg

<svg xmlns="http://www.w3.org/2000/svg" viewBox="0 0 24 24"><path d="M7.32 10.56 8.38 9.5 7.32 8.44l1.06-1.06L10.5 9.5l-2.12 2.12zM4.5 9h.08C5.77 6.07 8.64 4 12 4c2.19 0 4.16.88 5.61 2.3.15-.6.45-1.3.81-1.96A9.96 9.96 0 0 0 12 2c-4.89 0-8.95 3.5-9.82 8.14C2.74 9.44 3.59 9 4.5 9M21 10.5c-.42 0-.82-.09-1.19-.22.12.55.19 1.13.19 1.72 0 4.42-3.58 8-8 8-3.36 0-6.23-2.07-7.42-5H4.5c-.5 0-1.04-.14-1.5-.4-.32-.18-.59-.42-.82-.7C3.07 18.5 7.11 22 12 22c5.5 0 10-4.5 10-10 0-.55-.06-1.09-.14-1.62a3.5 3.5 0 0 1-.86.12M21 3s-2 2.9-2 4 .9 2 2 2 2-.9 2-2-2-4-2-4m-5.38 4.38L13.5 9.5l2.12 2.12 1.06-1.06-1.06-1.06 1.06-1.06zM8.56 17c.69-1.19 1.97-2 3.44-2s2.75.81 3.44 2h1.68c-.8-2.05-2.79-3.5-5.12-3.5-.87 0-1.7.2-2.43.57L6 12c0-.5-.27-1-.75-1.29-.72-.41-1.63-.17-2.05.55-.41.74-.17 1.63.55 2.05.48.28 1.05.25 1.49 0l2.97 1.72c-.57.53-1.03 1.21-1.33 1.97z"/></svg>

<?xml version="1.0" encoding="UTF-8"?><!DOCTYPE svg PUBLIC "-//W3C//DTD SVG 1.1//EN" "http://www.w3.org/Graphics/SVG/1.1/DTD/svg11.dtd"><svg xmlns="http://www.w3.org/2000/svg" xmlns:xlink="http://www.w3.org/1999/xlink" version="1.1" id="mdi-emoticon-sick-outline" width="24" height="24" viewBox="0 0 24 24"><path d="M7.32 10.56L8.38 9.5L7.32 8.44L8.38 7.38L10.5 9.5L8.38 11.62L7.32 10.56M4.5 9C4.53 9 4.55 9 4.58 9C5.77 6.07 8.64 4 12 4C14.19 4 16.16 4.88 17.61 6.3C17.76 5.7 18.06 5 18.42 4.34C16.68 2.88 14.44 2 12 2C7.11 2 3.05 5.5 2.18 10.14C2.74 9.44 3.59 9 4.5 9M21 10.5C20.58 10.5 20.18 10.41 19.81 10.28C19.93 10.83 20 11.41 20 12C20 16.42 16.42 20 12 20C8.64 20 5.77 17.93 4.58 15C4.55 15 4.53 15 4.5 15C4 15 3.46 14.86 3 14.6C2.68 14.42 2.41 14.18 2.18 13.9C3.07 18.5 7.11 22 12 22C17.5 22 22 17.5 22 12C22 11.45 21.94 10.91 21.86 10.38C21.58 10.45 21.3 10.5 21 10.5M21 3C21 3 19 5.9 19 7S19.9 9 21 9 23 8.1 23 7 21 3 21 3M15.62 7.38L13.5 9.5L15.62 11.62L16.68 10.56L15.62 9.5L16.68 8.44L15.62 7.38M8.56 17C9.25 15.81 10.53 15 12 15S14.75 15.81 15.44 17H17.12C16.32 14.95 14.33 13.5 12 13.5C11.13 13.5 10.3 13.7 9.57 14.07L6 12C6 11.5 5.73 11 5.25 10.71C4.53 10.3 3.62 10.54 3.2 11.26C2.79 12 3.03 12.89 3.75 13.31C4.23 13.59 4.8 13.56 5.24 13.31L8.21 15.03C7.64 15.56 7.18 16.24 6.88 17H8.56Z" /></svg>
